X: 36
M: C
L: 1/8
K: Gm
d4 B4 | cBAG ^FGA2 | B2G2 G2 || Bc | dcBA GABc | d4 B4 |
cBAG FGAB | c4 A4 | dcBA GABc | d4 B4 | cBAG ^FGA2 |
c2c2 c2Bc | d2d2 d2Bc | d2d2 d2AB | cBAG ^FGA2 | B2 G4 |]




